 M291 P"Remove work plate from machine" S2
        G0 Z350 H4
        G92 Z291.0
        G0 Z290.0
        M584 Z3
        G0 Z350 H4
        G92 Z290.856
        G0 Z290.0
        M584 Z4
        G0 Z350 H4
        G92 Z291.275
        G0 Z290.0
        M584 Z5
        G0 Z350 H4
        G92 Z291.178
        G0 Z290.0
        M584 Z3:4:5
        G0 Z280.0